X:41
T:Lord Kelly's Strathspey
S:Petrie's Third Collection of Strathspey Reels and Country Dances &c.
Z:Steve Wyrick , 7/30/05
N:Petrie's Third Collection, page 16
L:1/8
M:C
R:Strathspey
K:Gm
B|(DGBG) dGBG|CFAf FGAF|DG-GB AcBd|cf d/c/B/A/ BGG:|g/a/|bgdg G(dgb) afcf Fcfa|
bgdg gdTcB|Af d/c/B/A/ BGGg|bgdg|G(dgb)|afcf F(cfa)|bga^f gd=fc|Af d/c/B/A/ BGG|]
